X: 36683
T: She Hasn't The Thing She Thought She Had
R: slide
M: 12/8
K: Dmajor
|:A/G/|FGA D2 d|cde A2 G|FGA D2 F|E3- E2 A/G/|
FGA Dcd|cde A2 G|FGA ABc|d3 D2:|
|:d/e/|fed e2 d|cdB A2 e|fed c2 d|e3 a2 g|
fed e2 d|cdB A2 B|ABA B2 c|d3 D2:|

